sources/images/icons/mc-wiki.svg

<svg width="176" height="176" viewBox="0 0 176 176" fill="none" xmlns="http://www.w3.org/2000/svg">
<path d="M17.6 0H158.4C160.711 -2.70851e-08 163 0.455237 165.135 1.33972C167.271 2.2242 169.211 3.52061 170.845 5.15492C172.479 6.78923 173.776 8.72944 174.66 10.8648C175.545 13.0001 176 15.2887 176 17.6V158.4C176 160.711 175.545 163 174.66 165.135C173.776 167.271 172.479 169.211 170.845 170.845C169.211 172.479 167.271 173.776 165.135 174.66C163 175.545 160.711 176 158.4 176H17.6C15.2887 176 13.0001 175.545 10.8648 174.66C8.72944 173.776 6.78923 172.479 5.15492 170.845C3.52061 169.211 2.2242 167.271 1.33972 165.135C0.455237 163 -2.70851e-08 160.711 0 158.4V17.6C-2.70851e-08 15.2887 0.455237 13.0001 1.33972 10.8648C2.2242 8.72944 3.52061 6.78923 5.15492 5.15492C6.78923 3.52061 8.72944 2.2242 10.8648 1.33972C13.0001 0.455237 15.2887 -2.70851e-08 17.6 0ZM35.2 35.2V70.4H70.4V88H52.8V140.8H70.4V123.2H105.6V140.8H123.2V88H105.6V70.4H140.8V35.2H105.6V70.4H70.4V35.2H35.2Z" fill="black"/>
</svg>

<svg xmlns="http://www.w3.org/2000/svg" width="176" height="176" fill="none" viewBox="0 0 176 176"><path fill="#000" d="M17.6 0h140.8A17.6 17.6 0 0 1 176 17.6v140.8a17.6 17.6 0 0 1-5.2 12.4 17.6 17.6 0 0 1-12.4 5.2H17.6a17.6 17.6 0 0 1-12.4-5.2A17.6 17.6 0 0 1 0 158.4V17.6A17.6 17.6 0 0 1 17.6 0m17.6 35.2v35.2h35.2V88H52.8v52.8h17.6v-17.6h35.2v17.6h17.6V88h-17.6V70.4h35.2V35.2h-35.2v35.2H70.4V35.2z"/></svg>
